images/icons/behance.svg

<svg fill="none" height="24" viewBox="0 0 24 24" width="24" xmlns="http://www.w3.org/2000/svg" xmlns:xlink="http://www.w3.org/1999/xlink"><clipPath id="a"><path d="m0 0h24v24h-24z"/></clipPath><g clip-path="url(#a)"><path d="m22 7h-7v-2h7zm1.726 10c-.442 1.297-2.029 3-5.101 3-3.074 0-5.564-1.729-5.564-5.675 0-3.91 2.325-5.92 5.466-5.92 3.082 0 4.964 1.782 5.375 4.426.078.506.109 1.188.095 2.14h-8.027c.13 3.211 3.483 3.312 4.588 2.029zm-7.686-4h4.965c-.105-1.547-1.136-2.219-2.477-2.219-1.466 0-2.277.768-2.488 2.219zm-9.574 6.988h-6.466v-14.967h6.953c5.476.081 5.58 5.444 2.72 6.906 3.461 1.26 3.577 8.061-3.207 8.061zm-3.466-8.988h3.584c2.508 0 2.906-3-.312-3h-3.272zm3.391 3h-3.391v3.016h3.341c3.055 0 2.868-3.016.05-3.016z" fill="#fff"/></g></svg>

<svg width="24" height="24" viewBox="0 0 24 24" fill="none" xmlns="http://www.w3.org/2000/svg">
<g clip-path="url(#clip0_1450_781)">
<path d="M22 7H15V5H22V7ZM23.726 17C23.284 18.297 21.697 20 18.625 20C15.551 20 13.061 18.271 13.061 14.325C13.061 10.415 15.386 8.405 18.527 8.405C21.609 8.405 23.491 10.187 23.902 12.831C23.98 13.337 24.011 14.019 23.997 14.971H15.97C16.1 18.182 19.453 18.283 20.558 17H23.726ZM16.04 13H21.005C20.9 11.453 19.869 10.781 18.528 10.781C17.062 10.781 16.251 11.549 16.04 13ZM6.466 19.988H0V5.021H6.953C12.429 5.102 12.533 10.465 9.673 11.927C13.134 13.187 13.25 19.988 6.466 19.988ZM3 11H6.584C9.092 11 9.49 8 6.272 8H3V11ZM6.391 14H3V17.016H6.341C9.396 17.016 9.209 14 6.391 14Z" fill="white"/>
</g>
<defs>
<clipPath id="clip0_1450_781">
<rect width="24" height="24" fill="white"/>
</clipPath>
</defs>
</svg>
